X: 32586
T: Planxty Kelly
R: jig
M: 6/8
K: Aminor
E|EAA AGA|B2A G3/2A/B|c2B A3/2B/c|B3/2A/B gfg|
e2d c3/2d/e|dBA GAB|cBA GED|EAA A2||
B|Bcd e2g|f2e d2f|e2B B2c|d3 B2c|
B3 G2B|AFE DEF|GFE dBA|Bee e2||

